X:1
T:Title
%%score ( 1 2 ) { ( 3 5 ) | 4 }
L:1/8
Q:1/4=105
M:4/4
K:C
V:1 treble nm="Grand Piano, Soprano"
V:2 treble 
V:3 bass nm="Choir Pad, Victory (Barbour)"
V:5 bass 
V:4 bass 
V:1
 [CE]>[DF] [EG]2 [Ec]2 [GB]2 | [FA]2 [EG]6 | [FA]>[CE] [DF]6 | [Fd]>[FB] [Ec]6 | %4
w: By~Daniel~Brink~Towner * * * *||||
 [Ec]>[Ec] [Fd]2 [FB]2 [FA]2 | [FG]2 [Ec]6 | [Ec]>[Ec] [Fd]2 [FB]2 [FA]2 | G2 [Ge]6 | %8
w: ||||
 [Ge]>[Gd] [Gc]2 [CG]2 [CE]2 | [EG]2 [FA]6 | [Fd]>[Ec] [DB]6 | [Ge]>[Fd] [Ec]6 | [DB]>[Ec] [Fd]6 | %13
w: |||||
 [Ge]>[Fd] [Ec]6 | [Ac]>[GB] [FA]2 [FA]2 [FB]2 | [Ec]2 [Gd]6 | [Ge]>[Gd] [Gc]2 [EG]2 [CE]2 | %17
w: ||||
 [EG]2 [FA]6 | z2 B6 | [GBeg][GBdg] [Gc]6- | [Gc]2 z2 z4 |] %21
w: ||||
V:2
 x8 | x8 | x8 | x8 | x8 | x8 | x8 | x8 | x8 | x8 | x8 | x8 | x8 | x8 | x8 | x8 | x8 | x8 | %18
 d>d z2 G>G G2 | x8 | x8 |] %21
V:3
 G,>G, C2 G,2 C2 | C2 C6 | z4 B,>B, B,2 | z4 G,>G, G,2 | G,>G, B,2[K:treble] D2 C2 | B,2 C6 | %6
 G,>[K:bass]G, B,2 D2 C2 | B,2[K:treble] C6 | C>B, C2 C2 C2 | C2 C6 | z4[K:bass] G,>G, G,2 | %11
 C>B, C6 | z4 B,>B, B,2 | z4 G,>G, G,2 | C>C C2 C2 G,2 | G,2 B,6 | B,>B, C2[K:treble] C2 C2 | %17
 C2 C6 | z2 D6 | D/<C/F E6- | E2 z2 z4 |] %21
V:4
 C,>C, C,2 C,2 C,2 | C,2 C,6 | z4 G,>G, G,2 | z4 C,>C, C,2 | C,>C, G,2 G,2 G,2 | G,2 C,6 | %6
 C,>C, G,2 G,2 G,2 | G,2 C,6 | C,>D, E,2 E,2 G,2 | z2 F,6 | z8 | G,>G, C,6 | z4 G,>G, G,2 | %13
 z4 C,>C, C,2 | E,>E, F,2 F,2 D,2 | C,2 G,6 | G,>F, E,2 E,2 G,2 | z2 F,6 | z8 | %19
 z/4 G,3/4G, [C,C]6- | [C,C]2 z2 z4 |] %21
V:5
 x8 | x8 | x8 | x8 | x4[K:treble] x4 | x8 | x3/2[K:bass] x13/2 | x2[K:treble] x6 | x8 | x8 | %10
 x4[K:bass] x4 | x8 | x8 | x8 | x8 | x8 | x4[K:treble] x4 | x8 | F>E z2 G,>G, G,2 | x8 | x8 |] %21

